X: 12290
T: Fairy Music
R: jig
M: 6/8
K: Gmajor
|:B/c/|d2g B2c|d2B G3|A2B cBA|d2B G2(3A/B/c/|
d2g B2c|d2B G3|A2B cAF|1 G3 G2:|2 G3 G3||
g3 fef|gfe def|gag fef|g3 def|
gag fef|gfe def|gag fef|g3 B2c|
d2g B2c|d2B G3|A2B cBA|d2B G2(3A/B/c/|
d2g B2c|d2B G3|A2B cAF|G3 G3||

